X:1
T:QA 5
L:1/8
M:4/4
V:1
V:2 clef=bass
K:C
[V:1] z2 FA cegf | ef z e ed B2 | cdeB GFED | ^CDEF F2 E2 :|
[V:2] [D,F,C]8 | [G,,F,B,]8 | [C,E,B,]8 | [A,,G,^C]8 :| 